assets/img/braze_icons/message-circle-02.svg

<svg fill="none" height="24" viewBox="0 0 24 24" width="24" xmlns="http://www.w3.org/2000/svg"><path clip-rule="evenodd" d="m2 12c0-5.52285 4.47715-10 10-10 5.5228 0 10 4.47715 10 10 0 5.5228-4.4772 10-10 10-1.3283 0-2.5985-.2595-3.76079-.7316-.10498-.0426-.16559-.0671-.21034-.0839-.00529-.002-.00989-.0037-.01382-.0051l-.00475.0006c-.03691.005-.08721.0133-.18325.0293l-3.58656.5978c-.16064.0268-.34036.0568-.49645.0686-.17018.0128-.44092.0173-.72704-.1054-.3537-.1517-.63556-.4336-.78727-.7873-.12272-.2861-.11825-.5569-.1054-.727.01178-.1561.04179-.3358.06861-.4964.00161-.0097.00321-.0193.00479-.0288l.59298-3.5578c.01601-.0961.02429-.1464.02929-.1833l.00063-.0048c-.00143-.0039-.00312-.0085-.00511-.0138-.0168-.0447-.04133-.1053-.08396-.2103-.47204-1.1623-.73156-2.4325-.73156-3.7608z" fill="#801ed7" fill-rule="evenodd"/></svg>

<svg width="24" height="24" viewBox="0 0 24 24" fill="none" xmlns="http://www.w3.org/2000/svg">
<path fill-rule="evenodd" clip-rule="evenodd" d="M2 12C2 6.47715 6.47715 2 12 2C17.5228 2 22 6.47715 22 12C22 17.5228 17.5228 22 12 22C10.6717 22 9.4015 21.7405 8.23921 21.2684C8.13423 21.2258 8.07362 21.2013 8.02887 21.1845C8.02358 21.1825 8.01898 21.1808 8.01505 21.1794L8.0103 21.18C7.97339 21.185 7.92309 21.1933 7.82705 21.2093L4.24049 21.8071C4.07985 21.8339 3.90013 21.8639 3.74404 21.8757C3.57386 21.8885 3.30312 21.893 3.017 21.7703C2.6633 21.6186 2.38144 21.3367 2.22973 20.983C2.10701 20.6969 2.11148 20.4261 2.12433 20.256C2.13611 20.0999 2.16612 19.9202 2.19294 19.7596C2.19455 19.7499 2.19615 19.7403 2.19773 19.7308L2.79071 16.173C2.80672 16.0769 2.815 16.0266 2.82 15.9897L2.82063 15.9849C2.8192 15.981 2.81751 15.9764 2.81552 15.9711C2.79872 15.9264 2.77419 15.8658 2.73156 15.7608C2.25952 14.5985 2 13.3283 2 12Z" fill="#801ED7"/>
</svg>
